Gruvbox-Plus-Dark/actions/16/distribute-unclump.svg

<svg xmlns="http://www.w3.org/2000/svg" width="16" height="16" viewBox="0 0 16 16">
 <defs>
  <style id="current-color-scheme" type="text/css">
   .ColorScheme-Text { color:#ebdbb2; } .ColorScheme-Highlight { color:#458588; }
  </style>
 </defs>
 <path style="fill:currentColor" class="ColorScheme-Text" d="M 0 1.0097656 L 0 15.009766 L 4 15.009766 L 4 1.0097656 L 0 1.0097656 z M 10 1.0097656 L 10 5.0097656 L 15 5.0097656 L 15 1.0097656 L 10 1.0097656 z M 5 2.0097656 L 5 3.0097656 L 9 3.0097656 L 9 2.0097656 L 5 2.0097656 z M 12 6.0097656 L 12 10.009766 L 13 10.009766 L 13 6.0097656 L 12 6.0097656 z M 10 11.009766 L 10 15.009766 L 15 15.009766 L 15 11.009766 L 10 11.009766 z M 5 13.009766 L 5 14.009766 L 9 14.009766 L 9 13.009766 L 5 13.009766 z"/>
</svg>

<svg width="16" height="16" version="1.1" viewBox="0 0 16 16" xmlns="http://www.w3.org/2000/svg">
  <defs>
    <style type="text/css">.ColorScheme-Text { color:#ebdbb2; } .ColorScheme-Highlight { color:#458588; }</style>
  </defs>
  <path class="ColorScheme-Text" d="m1 1v14h4v-14zm9 0v4h5v-4zm-4 1v1h3v-1zm6 4v4h1v-4zm-2 5v4h5v-4zm-4 2v1h3v-1z" fill="currentColor"/>
</svg>
